communes/4027.svg

<?xml version="1.0" encoding="UTF-8"?>
<!DOCTYPE svg  PUBLIC '-//W3C//DTD SVG 1.1//EN'  'http://www.w3.org/Graphics/SVG/1.1/DTD/svg11.dtd'>
<svg width="520" height="585" version="1.1" viewBox="0 0 100 112.5" xmlns="http://www.w3.org/2000/svg">
<title>Wappen von Fislisbach</title>
<desc>Wappen der Schweizer Gemeinde Fislisbach, Kanton Aargau</desc>
<path d="m1 1h98v61.5a49 49 0 0 1-98 0z" fill="#0093dd" stroke="#000" stroke-width="2"/>
<path d="m58 7.5c-2.5 3-2.5 4-2.5 7v8.5h9.5c2 0 4 0 6-1.5v12c-2-1.5-4-1.5-6-1.5h-9.5v17.5h20.5c2 0 4 0 6-1.5v12c-2-1.5-4-1.5-6-1.5h-20.5v20.5c0 9 4 15 8.5 18-4 0-6.5-0.5-10-3-0.5 4-2 8-4 11.5-2-3.5-3.5-7.5-4-11.5-3.5 2.5-6 3-10 3 4.5-3 8.5-9 8.5-18v-20.5h-20.5c-2 0-4 0-6 1.5v-12c2 1.5 4 1.5 6 1.5h20.5v-17.5h-9.5c-2 0-4 0-6 1.5v-12c2 1.5 4 1.5 6 1.5h9.5v-8.5c0-3 0-4-2.5-7z" fill="#fff" stroke="#000"/>
</svg>

<?xml version="1.0" encoding="utf-8" standalone="no"?>
<!DOCTYPE svg PUBLIC "-//W3C//DTD SVG 1.1//EN" "http://www.w3.org/Graphics/SVG/1.1/DTD/svg11.dtd">
<svg version="1.1"
   xmlns="http://www.w3.org/2000/svg"   xmlns:xlink="http://www.w3.org/1999/xlink"
   width="520" height="585" viewBox="0 0 100 112.5">
  <title>Wappen von Fislisbach</title>
  <desc>Wappen der Schweizer Gemeinde Fislisbach, Kanton Aargau</desc>
  <path d="M 1,1 H 99 V 62.5 A 49 49 0 0 1 1,62.5 z" stroke="black" stroke-width="2" fill="#0093dd" />
  <path d="M 58,7.5 C 55.5,10.5 55.5,11.5 55.5,14.5 L 55.5,23 L 65,23 C 67,23 69,23 71,21.5 L 71,33.5 C 69,32 67,32 65,32 L 55.5,32 L 55.5,49.5 L 76,49.5 C 78,49.5 80,49.5 82,48 L 82,60 C 80,58.5 78,58.5 76,58.5 L 55.5,58.5 L 55.5,79 C 55.5,88 59.5,94 64,97 C 60,97 57.5,96.5 54,94 C 53.5,98 52,102 50,105.5 C 48,102 46.5,98 46,94 C 42.5,96.5 40,97 36,97 C 40.5,94 44.5,88 44.5,79 L 44.5,58.5 L 24,58.5 C 22,58.5 20,58.5 18,60 L 18,48 C 20,49.5 22,49.5 24,49.5 L 44.5,49.5 L 44.5,32 L 35,32 C 33,32 31,32 29,33.5 L 29,21.5 C 31,23 33,23 35,23 L 44.5,23 L 44.5,14.5 C 44.5,11.5 44.5,10.5 42,7.5 z" stroke="black" stroke-width="1" fill="white" />
</svg>
